icons/file-lock-line.svg

<svg xmlns="http://www.w3.org/2000/svg" width="24" height="24" fill="none"><g clip-path="url(#a)"><g><path fill="#121212" d="M15 4H5V20H19V8H15V4ZM3 2.992C3 2.444 3.447 2 3.999 2H16L21 7V20.993C21.0009 21.1243 20.976 21.2545 20.9266 21.3762C20.8772 21.4979 20.8043 21.6087 20.7121 21.7022C20.6199 21.7957 20.5101 21.8701 20.3892 21.9212C20.2682 21.9723 20.1383 21.9991 20.007 22H3.993C3.73038 21.9982 3.47902 21.8931 3.29322 21.7075C3.10742 21.5219 3.00209 21.2706 3 21.008V2.992ZM15 11H16V16H8V11H9V10C9 9.20435 9.31607 8.44129 9.87868 7.87868C10.4413 7.31607 11.2044 7 12 7C12.7956 7 13.5587 7.31607 14.1213 7.87868C14.6839 8.44129 15 9.20435 15 10V11ZM13 11V10C13 9.73478 12.8946 9.48043 12.7071 9.29289C12.5196 9.10536 12.2652 9 12 9C11.7348 9 11.4804 9.10536 11.2929 9.29289C11.1054 9.48043 11 9.73478 11 10V11H13Z"/></g></g><defs><clipPath id="a"><rect width="24" height="24" fill="white"/></clipPath></defs></svg>

<svg width="24" height="24" fill="none" xmlns="http://www.w3.org/2000/svg"><g clip-path="url(#a)"><path d="M15 4H5v16h14V8h-4V4ZM3 2.992C3 2.444 3.447 2 3.999 2H16l5 5v13.993A1 1 0 0 1 20.007 22H3.993A1 1 0 0 1 3 21.008V2.992ZM15 11h1v5H8v-5h1v-1a3 3 0 1 1 6 0v1Zm-2 0v-1a1 1 0 0 0-2 0v1h2Z" /></g><defs><clipPath id="a"><path fill="#fff" d="M0 0h24v24H0z"/></clipPath></defs></svg>
